**kern	**silbe	**harmony	**phrase	**leadinstrument	**rhyme	**timestamp	**harte
*ICvox	*	*M4/4	*	*	*	*	*M4/4
*VRlead	*	*	*	*	*	*	*
*Hstimme	*	*	*	*	*	*	*
*E-:	*	*E-:	*	*	*	*	*E-:
*M4/4	*	*	*	*	*	*	*
*clefG2	*	*	*	*	*	*	*
r;	.	1r;	.	r	.	0	N.C.
=1	=1	=1	=1	=1	=1	=1	=1
*>Letter>A	*>Letter>A	*>Letter>A	*>Letter>A	*>Letter>A	*>Letter>A	*>Letter>A	*>Letter>A
*>Label>Intro	*>Label>Intro	*>Label>Intro	*>Label>Intro	*>Label>Intro	*>Label>Intro	*>Label>Intro	*>Label>Intro
1r	.	2Fm	newline	guitar	.	0.627	F:5
.	.	2G-M	.	guitar	.	1.472	G-:5
=2	=2	=2	=2	=2	=2	=2	=2
1r	.	2Gm	.	guitar	.	2.316	G:5
.	.	2A-M	.	guitar	.	3.161	A-:5
=3	=3	=3	=3	=3	=3	=3	=3
1r	.	2AM	.	guitar	.	4.005	A:5
.	.	2B-M	.	guitar	.	4.85	B-:5
=4	=4	=4	=4	=4	=4	=4	=4
1r	.	2BM	.	guitar	.	5.695	B:5
.	.	2Cm	.	guitar	.	6.539	C:5
=5	=5	=5	=5	=5	=5	=5	=5
*>Letter>B	*>Letter>B	*>Letter>B	*>Letter>B	*>Letter>B	*>Letter>B	*>Letter>B	*>Letter>B
*>Label>Interlude	*>Label>Interlude	*>Label>Interlude	*>Label>Interlude	*>Label>Interlude	*>Label>Interlude	*>Label>Interlude	*>Label>Interlude
1r	.	1E-m	newline	guitar	.	7.384	E-:min
=6	=6	=6	=6	=6	=6	=6	=6
1r	.	1E-m	.	guitar	.	9.056	E-:min
=7	=7	=7	=7	=7	=7	=7	=7
1r	.	1E-m	.	guitar	.	10.727	E-:min
=8	=8	=8	=8	=8	=8	=8	=8
1r	.	1E-m	.	guitar	.	12.399	E-:min
=9	=9	=9	=9	=9	=9	=9	=9
1r	.	1E-m	newline	guitar	.	14.071	E-:min
=10	=10	=10	=10	=10	=10	=10	=10
1r	.	1E-m	.	guitar	.	15.724	E-:min
=11	=11	=11	=11	=11	=11	=11	=11
1r	.	1E-m	.	guitar	.	17.376	E-:min
=12	=12	=12	=12	=12	=12	=12	=12
1r	.	1E-m	.	guitar	.	19.029	E-:min
=13	=13	=13	=13	=13	=13	=13	=13
*>Letter>C	*>Letter>C	*>Letter>C	*>Letter>C	*>Letter>C	*>Letter>C	*>Letter>C	*>Letter>C
*>Label>Verse	*>Label>Verse	*>Label>Verse	*>Label>Verse	*>Label>Verse	*>Label>Verse	*>Label>Verse	*>Label>Verse
4r	.	2.Fm	newline	voice	.	20.681	F:5
8f	La-	.	.	.	.	.	.
8f	-dy	.	.	.	.	.	.
4f	space	.	.	.	.	.	.
4f	you	4B-M	.	voice	.	21.923	B-:5
=14	=14	=14	=14	=14	=14	=14	=14
4f	like	2.Fm	.	voice	.	22.338	F:5
8f	the	.	.	.	.	.	.
[4f	way	.	.	.	.	.	.
8f]	_	.	.	.	.	.	.
4r	.	4E-M	.	voice	.	23.58	E-:5
=15	=15	=15	=15	=15	=15	=15	=15
8r	.	2.Fm	.	voice	.	23.994	F:5
8e-	I	.	.	.	.	.	.
8f	make	.	.	.	.	.	.
8e-	you	.	.	.	.	.	.
8f	feel	.	.	.	.	.	.
4f	in-	.	.	.	.	.	.
.	.	4B-M	.	voice	.	25.236	B-:5
[8f	-side	.	.	.	A	.	.
=16	=16	=16	=16	=16	=16	=16	=16
2f]	_	4Fm	.	voice	.	25.65	F:5
.	.	4G-M	.	voice	.	26.064	G-:5
4r	.	4Gm	.	voice	.	26.478	G:5
8d-	Take	4A-M	.	voice	.	26.893	A-:5
8e-	a	.	.	.	.	.	.
=17	=17	=17	=17	=17	=17	=17	=17
8e-	rock-	1E-m	newline	guitar	.	27.307	E-:min
8e-	-et	.	.	.	.	.	.
4e-	ride	.	.	.	A	.	.
2r	.	.	.	.	.	.	.
=18	=18	=18	=18	=18	=18	=18	=18
1r	.	1E-m	.	guitar	.	28.967	E-:min
=19	=19	=19	=19	=19	=19	=19	=19
1r	.	1E-m	.	guitar	.	30.627	E-:min
=20	=20	=20	=20	=20	=20	=20	=20
1r	.	1E-m	.	guitar	.	32.287	E-:min
=21	=21	=21	=21	=21	=21	=21	=21
4r	.	2.Fm	newline	voice	.	33.948	F:5
8f	From	.	.	.	.	.	.
8f	the	.	.	.	.	.	.
4f	start	.	.	.	.	.	.
4f	you	4B-M	.	voice	.	35.186	B-:5
=22	=22	=22	=22	=22	=22	=22	=22
8f	want-	2.Fm	.	voice	.	35.598	F:5
8f	-ed	.	.	.	.	.	.
8f	to	.	.	.	.	.	.
4f	fly	.	.	.	A	.	.
8r	.	.	.	.	.	.	.
4r	.	4E-M	.	voice	.	36.836	E-:5
=23	=23	=23	=23	=23	=23	=23	=23
8r	.	2.Fm	.	voice	.	37.249	F:5
8f	I	.	.	.	.	.	.
8f	got	.	.	.	.	.	.
8e-	the	.	.	.	.	.	.
8f	rock-	.	.	.	.	.	.
8f	-et	.	.	.	.	.	.
8r	.	4B-M	.	voice	.	38.487	B-:5
8e-	and	.	.	.	.	.	.
=24	=24	=24	=24	=24	=24	=24	=24
8f	you	4Fm	.	voice	.	38.9	F:5
8f	want	.	.	.	.	.	.
8f	the	4G-M	.	voice	.	39.312	G-:5
[4f	ride	.	.	.	A	.	.
.	.	4Gm	.	voice	.	39.725	G:5
8f]	_	.	.	.	.	.	.
8d-	Take	4A-M	.	voice	.	40.138	A-:5
8e-	a	.	.	.	.	.	.
=25	=25	=25	=25	=25	=25	=25	=25
8e-	rock-	1E-m	newline	guitar	.	40.551	E-:min
8e-	-et	.	.	.	.	.	.
4e-	ride	.	.	.	A	.	.
2r	.	.	.	.	.	.	.
=26	=26	=26	=26	=26	=26	=26	=26
1r	.	1E-m	.	guitar	.	42.209	E-:min
=27	=27	=27	=27	=27	=27	=27	=27
1r	.	1E-m	.	guitar	.	43.867	E-:min
=28	=28	=28	=28	=28	=28	=28	=28
1r	.	1E-m	.	guitar	.	45.525	E-:min
=29	=29	=29	=29	=29	=29	=29	=29
*>Letter>D	*>Letter>D	*>Letter>D	*>Letter>D	*>Letter>D	*>Letter>D	*>Letter>D	*>Letter>D
*>Label>Prechorus	*>Label>Prechorus	*>Label>Prechorus	*>Label>Prechorus	*>Label>Prechorus	*>Label>Prechorus	*>Label>Prechorus	*>Label>Prechorus
1r	.	1D-M	newline	guitar	.	47.183	D-:maj
=30	=30	=30	=30	=30	=30	=30	=30
1r	.	1E-m	.	guitar	.	48.821	E-:min
=31	=31	=31	=31	=31	=31	=31	=31
1r	.	1Fm	.	guitar	.	50.459	F:5
=32	=32	=32	=32	=32	=32	=32	=32
8r	.	1Fm	.	guitar	.	52.097	F:5
4r	.	.	.	.	.	.	.
2r	.	.	.	.	.	.	.
[8f	Ba-	.	.	.	.	.	.
=33	=33	=33	=33	=33	=33	=33	=33
*>Letter>E	*>Letter>E	*>Letter>E	*>Letter>E	*>Letter>E	*>Letter>E	*>Letter>E	*>Letter>E
*>Label>Chorus	*>Label>Chorus	*>Label>Chorus	*>Label>Chorus	*>Label>Chorus	*>Label>Chorus	*>Label>Chorus	*>Label>Chorus
8f]	_	2.FM	newline	voice	.	53.735	F:maj
8f	-by	.	.	.	.	.	.
8f	wants	.	.	.	.	.	.
8f	it	.	.	.	.	.	.
8c	fast	.	.	.	B	.	.
4r	.	.	.	.	.	.	.
.	.	4B-M	.	voice	.	54.963	B-:maj/5
[8f	ba-	.	.	.	.	.	.
=34	=34	=34	=34	=34	=34	=34	=34
8f]	_	2.FM	.	voice	.	55.372	F:maj
8f	-by	.	.	.	.	.	.
8f	wants	.	.	.	.	.	.
8f	a	.	.	.	.	.	.
8c	blast	.	.	.	B	.	.
8r	.	.	.	.	.	.	.
4r	.	4B-M	.	voice	.	56.6	B-:maj/5
=35	=35	=35	=35	=35	=35	=35	=35
8r	.	4FM	.	voice	.	57.01	F:maj
8e-	she	.	.	.	.	.	.
8e-	wants	2E-M	.	voice	.	57.419	E-:maj
8e-	a	.	.	.	.	.	.
8e-	rock-	.	.	.	.	.	.
8e-	-et	.	.	.	.	.	.
8B-	ride	4B-M	.	voice	.	58.238	B-:maj
8r	.	.	.	.	.	.	.
=36	=36	=36	=36	=36	=36	=36	=36
8r	.	4B-M	.	voice	.	58.647	B-:maj
8e-	she	.	.	.	.	.	.
8e-	wants	2E-M	.	voice	.	59.056	E-:maj
8e-	a	.	.	.	.	.	.
8e-	rock-	.	.	.	.	.	.
8e-	-et	.	.	.	.	.	.
8B-	ride	4B-M	.	voice	.	59.875	B-:maj
[8f	Ba-	.	.	.	.	.	.
=37	=37	=37	=37	=37	=37	=37	=37
8f]	_	2.FM	newline	voice	.	60.284	F:maj
8f	-by	.	.	.	.	.	.
8f	wants	.	.	.	.	.	.
8f	it	.	.	.	.	.	.
8c	fast	.	.	.	B	.	.
4r	.	.	.	.	.	.	.
.	.	4B-M	.	voice	.	61.511	B-:maj/5
[8f	ba-	.	.	.	.	.	.
=38	=38	=38	=38	=38	=38	=38	=38
8f]	_	2.FM	.	voice	.	61.921	F:maj
8f	-by	.	.	.	.	.	.
8f	wants	.	.	.	.	.	.
8f	a	.	.	.	.	.	.
8c	blast	.	.	.	B	.	.
8r	.	.	.	.	.	.	.
4r	.	4B-M	.	voice	.	63.148	B-:maj/5
=39	=39	=39	=39	=39	=39	=39	=39
8r	.	4FM	.	voice	.	63.557	F:maj
8e-	she	.	.	.	.	.	.
8e-	wants	2E-M	.	voice	.	63.966	E-:maj
8e-	a	.	.	.	.	.	.
8e-	rock-	.	.	.	.	.	.
8e-	-et	.	.	.	.	.	.
8B-	ride	4B-M	.	voice	.	64.784	B-:maj
8r	.	.	.	.	.	.	.
=40	=40	=40	=40	=40	=40	=40	=40
8r	.	4B-M	.	voice	.	65.193	B-:maj
8e-	she	.	.	.	.	.	.
8e-	wants	2E-M	.	voice	.	65.602	E-:maj
8e-	a	.	.	.	.	.	.
8e-	rock-	.	.	.	.	.	.
8e-	-et	.	.	.	.	.	.
4B-	ride	4B-M	.	voice	.	66.42	B-:maj
=41	=41	=41	=41	=41	=41	=41	=41
*>Letter>B	*>Letter>B	*>Letter>B	*>Letter>B	*>Letter>B	*>Letter>B	*>Letter>B	*>Letter>B
*>Label>Interlude	*>Label>Interlude	*>Label>Interlude	*>Label>Interlude	*>Label>Interlude	*>Label>Interlude	*>Label>Interlude	*>Label>Interlude
1r	.	1E-m	newline	guitar	.	66.829	E-:min
=42	=42	=42	=42	=42	=42	=42	=42
1r	.	1E-m	.	guitar	.	68.49	E-:min
=43	=43	=43	=43	=43	=43	=43	=43
1r	.	1E-m	.	guitar	.	70.15	E-:min
=44	=44	=44	=44	=44	=44	=44	=44
1r	.	1E-m	.	guitar	.	71.81	E-:min
=45	=45	=45	=45	=45	=45	=45	=45
1r	.	1E-m	newline	guitar	.	73.47	E-:min
=46	=46	=46	=46	=46	=46	=46	=46
1r	.	1E-m	.	guitar	.	75.12	E-:min
=47	=47	=47	=47	=47	=47	=47	=47
1r	.	1E-m	.	guitar	.	76.77	E-:min
=48	=48	=48	=48	=48	=48	=48	=48
1r	.	1E-m	.	guitar	.	78.42	E-:min
=49	=49	=49	=49	=49	=49	=49	=49
*>Letter>C	*>Letter>C	*>Letter>C	*>Letter>C	*>Letter>C	*>Letter>C	*>Letter>C	*>Letter>C
*>Label>Verse	*>Label>Verse	*>Label>Verse	*>Label>Verse	*>Label>Verse	*>Label>Verse	*>Label>Verse	*>Label>Verse
4r	.	2.Fm	newline	voice	.	80.07	F:5
8f	La-	.	.	.	.	.	.
8f	-dy	.	.	.	.	.	.
8f	space	.	.	.	.	.	.
8e-	you	.	.	.	.	.	.
8f	bet-	4B-M	.	voice	.	81.311	B-:5
8e-	-ter	.	.	.	.	.	.
=50	=50	=50	=50	=50	=50	=50	=50
8f	wake	2.Fm	.	voice	.	81.725	F:5
8f	up	.	.	.	.	.	.
4f	fast	.	.	.	B	.	.
2r	.	.	.	.	.	.	.
.	.	4E-M	.	voice	.	82.966	E-:5
=51	=51	=51	=51	=51	=51	=51	=51
8f	Count-	2.Fm	.	voice	.	83.379	F:5
4f	-down	.	.	.	.	.	.
8d	is	.	.	.	.	.	.
8f	com-	.	.	.	.	.	.
8f	-in'	.	.	.	.	.	.
[4f	on	4B-M	.	voice	.	84.621	B-:5
=52	=52	=52	=52	=52	=52	=52	=52
4f]	_	4Fm	.	voice	.	85.034	F:5
2r	.	4G-M	.	voice	.	85.448	G-:5
.	.	4Gm	.	voice	.	85.862	G:5
8d-	Take	4A-M	.	voice	.	86.275	A-:5
8e-	a	.	.	.	.	.	.
=53	=53	=53	=53	=53	=53	=53	=53
8e-	rock-	1E-m	newline	guitar	.	86.689	E-:min
8e-	-et	.	.	.	.	.	.
4e-	ride	.	.	.	A	.	.
2r	.	.	.	.	.	.	.
=54	=54	=54	=54	=54	=54	=54	=54
1r	.	1E-m	.	guitar	.	88.35	E-:min
=55	=55	=55	=55	=55	=55	=55	=55
1r	.	1E-m	.	guitar	.	90.01	E-:min
=56	=56	=56	=56	=56	=56	=56	=56
1r	.	1E-m	.	guitar	.	91.671	E-:min
=57	=57	=57	=57	=57	=57	=57	=57
8r	.	2.Fm	newline	voice	.	93.331	F:5
8e-	The	.	.	.	.	.	.
8f	gra-	.	.	.	.	.	.
8f	-vi-	.	.	.	.	.	.
8f	-ty	.	.	.	.	.	.
8e-	that	.	.	.	.	.	.
8f	used	4B-M	.	voice	.	94.572	B-:5
8e-	to	.	.	.	.	.	.
=58	=58	=58	=58	=58	=58	=58	=58
8f	hold	2.Fm	.	voice	.	94.985	F:5
8f	you	.	.	.	.	.	.
2f	down	.	.	.	.	.	.
4r	.	4E-M	.	voice	.	96.225	E-:5
=59	=59	=59	=59	=59	=59	=59	=59
4f	just	2.Fm	.	voice	.	96.639	F:5
8f	don't	.	.	.	.	.	.
8e-	ex-	.	.	.	.	.	.
8f	-ist	.	.	.	.	.	.
4f	no	.	.	.	.	.	.
.	.	4B-M	.	voice	.	97.879	B-:5
[8f	more	.	.	.	.	.	.
=60	=60	=60	=60	=60	=60	=60	=60
8f]	_	4Fm	.	voice	.	98.293	F:5
8r	.	.	.	.	.	.	.
2r	.	4G-M	.	voice	.	98.706	G-:5
.	.	4Gm	.	voice	.	99.119	G:5
8d-	take	4A-M	.	voice	.	99.533	A-:5
8e-	a	.	.	.	.	.	.
=61	=61	=61	=61	=61	=61	=61	=61
8e-	rock-	1E-m	newline	guitar	.	99.946	E-:min
8e-	-et	.	.	.	.	.	.
4e-	ride	.	.	.	.	.	.
2r	.	.	.	.	.	.	.
=62	=62	=62	=62	=62	=62	=62	=62
1r	.	1E-m	.	guitar	.	101.615	E-:min
=63	=63	=63	=63	=63	=63	=63	=63
1r	.	1E-m	.	guitar	.	103.285	E-:min
=64	=64	=64	=64	=64	=64	=64	=64
1r	.	1E-m	.	guitar	.	104.954	E-:min
=65	=65	=65	=65	=65	=65	=65	=65
*>Letter>D	*>Letter>D	*>Letter>D	*>Letter>D	*>Letter>D	*>Letter>D	*>Letter>D	*>Letter>D
*>Label>Prechorus	*>Label>Prechorus	*>Label>Prechorus	*>Label>Prechorus	*>Label>Prechorus	*>Label>Prechorus	*>Label>Prechorus	*>Label>Prechorus
1r	.	1D-M	newline	guitar	.	106.623	D-:maj
=66	=66	=66	=66	=66	=66	=66	=66
1r	.	1E-m	.	guitar	.	108.273	E-:min
=67	=67	=67	=67	=67	=67	=67	=67
1r	.	1Fm	.	guitar	.	109.924	F:5
=68	=68	=68	=68	=68	=68	=68	=68
8r	.	1Fm	.	guitar	.	111.574	F:5
4r	.	.	.	.	.	.	.
2r	.	.	.	.	.	.	.
[8f	Ba-	.	.	.	.	.	.
=69	=69	=69	=69	=69	=69	=69	=69
*>Letter>E	*>Letter>E	*>Letter>E	*>Letter>E	*>Letter>E	*>Letter>E	*>Letter>E	*>Letter>E
*>Label>Chorus	*>Label>Chorus	*>Label>Chorus	*>Label>Chorus	*>Label>Chorus	*>Label>Chorus	*>Label>Chorus	*>Label>Chorus
8f]	_	2.FM	newline	voice	.	113.224	F:maj
8f	-by	.	.	.	.	.	.
8f	wants	.	.	.	.	.	.
8f	it	.	.	.	.	.	.
8c	fast	.	.	.	B	.	.
4r	.	.	.	.	.	.	.
.	.	4B-M	.	voice	.	114.466	B-:maj/5
[8f	ba-	.	.	.	.	.	.
=70	=70	=70	=70	=70	=70	=70	=70
8f]	_	2.FM	.	voice	.	114.88	F:maj
8f	-by	.	.	.	.	.	.
8f	wants	.	.	.	.	.	.
8f	a	.	.	.	.	.	.
8c	blast	.	.	.	B	.	.
8r	.	.	.	.	.	.	.
4r	.	4B-M	.	voice	.	116.122	B-:maj/5
=71	=71	=71	=71	=71	=71	=71	=71
8r	.	4FM	.	voice	.	116.536	F:maj
8e-	she	.	.	.	.	.	.
8e-	wants	2E-M	.	voice	.	116.95	E-:maj
8e-	a	.	.	.	.	.	.
8e-	rock-	.	.	.	.	.	.
8e-	-et	.	.	.	.	.	.
8B-	ride	4B-M	.	voice	.	117.778	B-:maj
8r	.	.	.	.	.	.	.
=72	=72	=72	=72	=72	=72	=72	=72
8r	.	4B-M	.	voice	.	118.192	B-:maj
8e-	she	.	.	.	.	.	.
8e-	wants	2E-M	.	voice	.	118.606	E-:maj
8e-	a	.	.	.	.	.	.
8e-	rock-	.	.	.	.	.	.
8e-	-et	.	.	.	.	.	.
8B-	ride	4B-M	.	voice	.	119.434	B-:maj
[8f	Ba-	.	.	.	.	.	.
=73	=73	=73	=73	=73	=73	=73	=73
8f]	_	2.FM	newline	voice	.	119.848	F:maj
8f	-by	.	.	.	.	.	.
8f	wants	.	.	.	.	.	.
8f	it	.	.	.	.	.	.
8c	fast	.	.	.	B	.	.
4r	.	.	.	.	.	.	.
.	.	4B-M	.	voice	.	121.076	B-:maj/5
[8f	ba-	.	.	.	.	.	.
=74	=74	=74	=74	=74	=74	=74	=74
8f]	_	2.FM	.	voice	.	121.485	F:maj
8f	-by	.	.	.	.	.	.
8f	wants	.	.	.	.	.	.
8f	a	.	.	.	.	.	.
8c	blast	.	.	.	B	.	.
8r	.	.	.	.	.	.	.
4r	.	4B-M	.	voice	.	122.712	B-:maj/5
=75	=75	=75	=75	=75	=75	=75	=75
8r	.	4FM	.	voice	.	123.121	F:maj
8e-	she	.	.	.	.	.	.
8e-	wants	2E-M	.	voice	.	123.531	E-:maj
8e-	a	.	.	.	.	.	.
8e-	rock-	.	.	.	.	.	.
8e-	-et	.	.	.	.	.	.
8B-	ride	4B-M	.	voice	.	124.349	B-:maj
8r	.	.	.	.	.	.	.
=76	=76	=76	=76	=76	=76	=76	=76
8r	.	4B-M	.	voice	.	124.758	B-:maj
8e-	she	.	.	.	.	.	.
8e-	wants	2E-M	.	voice	.	125.167	E-:maj
8e-	a	.	.	.	.	.	.
8e-	rock-	.	.	.	.	.	.
8e-	-et	.	.	.	.	.	.
4B-	ride	4B-M	.	voice	.	125.986	B-:maj
=77	=77	=77	=77	=77	=77	=77	=77
*>Letter>A	*>Letter>A	*>Letter>A	*>Letter>A	*>Letter>A	*>Letter>A	*>Letter>A	*>Letter>A
*>Label>Interlude	*>Label>Interlude	*>Label>Interlude	*>Label>Interlude	*>Label>Interlude	*>Label>Interlude	*>Label>Interlude	*>Label>Interlude
1r	.	2Fm	newline	guitar	.	126.395	F:1
.	.	2G-M	.	guitar	.	127.22	G-:1
=78	=78	=78	=78	=78	=78	=78	=78
1r	.	2Gm	.	guitar	.	128.045	G:1
.	.	2A-M	.	guitar	.	128.87	A-:1
=79	=79	=79	=79	=79	=79	=79	=79
1r	.	2AM	.	guitar	.	129.695	A:1
.	.	2B-M	.	guitar	.	130.519	B-:1
=80	=80	=80	=80	=80	=80	=80	=80
1r	.	2BM	.	guitar	.	131.344	B:1
.	.	2Cm	.	guitar	.	132.169	C:1
=81	=81	=81	=81	=81	=81	=81	=81
1r	.	2FM	newline	guitar	.	132.994	F:maj
.	.	2G-M	.	guitar	.	133.81	F#:maj
=82	=82	=82	=82	=82	=82	=82	=82
1r	.	2GM	.	guitar	.	134.626	G:maj
.	.	2A-M	.	guitar	.	135.442	G#:maj
=83	=83	=83	=83	=83	=83	=83	=83
1r	.	2AM	.	guitar	.	136.258	A:maj
.	.	2B-M	.	guitar	.	137.074	A#:maj
=84	=84	=84	=84	=84	=84	=84	=84
1r	.	2BM	.	guitar	.	137.89	B:maj
.	.	2CM	.	guitar	.	138.706	C:maj
=85	=85	=85	=85	=85	=85	=85	=85
1r	.	2FM	newline	guitar	.	139.522	F:maj
.	.	2G-M	.	guitar	.	140.347	F#:maj
=86	=86	=86	=86	=86	=86	=86	=86
1r	.	2GM	.	guitar	.	141.172	G:maj
.	.	2A-M	.	guitar	.	141.997	G#:maj
=87	=87	=87	=87	=87	=87	=87	=87
1r	.	2AM	.	guitar	.	142.822	A:maj
.	.	2B-M	.	guitar	.	143.646	A#:maj
=88	=88	=88	=88	=88	=88	=88	=88
1r	.	2BM	.	guitar	.	144.471	B:maj
.	.	2CM	.	guitar	.	145.296	C:maj
=89	=89	=89	=89	=89	=89	=89	=89
*>Letter>F	*>Letter>F	*>Letter>F	*>Letter>F	*>Letter>F	*>Letter>F	*>Letter>F	*>Letter>F
*>Label>Solo	*>Label>Solo	*>Label>Solo	*>Label>Solo	*>Label>Solo	*>Label>Solo	*>Label>Solo	*>Label>Solo
1r	.	2.FM	newline	guitar	.	146.121	F:maj
.	.	4B-M	.	guitar	.	147.391	B-:maj
=90	=90	=90	=90	=90	=90	=90	=90
1r	.	2.FM	.	guitar	.	147.815	F:maj
.	.	4B-M	.	guitar	.	149.085	B-:maj
=91	=91	=91	=91	=91	=91	=91	=91
1r	.	2.FM	.	guitar	.	149.508	F:maj
.	.	4B-M	.	guitar	.	150.779	B-:maj
=92	=92	=92	=92	=92	=92	=92	=92
1r	.	2FM	.	guitar	.	151.202	F:maj
.	.	4G-M	.	guitar	.	152.049	G-:5
.	.	4Gm	.	guitar	.	152.473	G:5
=93	=93	=93	=93	=93	=93	=93	=93
1r	.	2.A-M	newline	guitar	.	152.896	A-:maj
.	.	4D-M	.	guitar	.	154.148	D-:maj
=94	=94	=94	=94	=94	=94	=94	=94
1r	.	2.A-M	.	guitar	.	154.565	A-:maj
.	.	4D-M	.	guitar	.	155.817	D-:maj
=95	=95	=95	=95	=95	=95	=95	=95
1r	.	2.A-M	.	guitar	.	156.234	A-:maj
.	.	4D-M	.	guitar	.	157.486	D-:maj
=96	=96	=96	=96	=96	=96	=96	=96
1r	.	4A-M	.	guitar	.	157.903	A-:5
.	.	4AM	.	guitar	.	158.321	A:5
.	.	4B-M	.	guitar	.	158.738	B-:5
.	.	4BM	.	guitar	.	159.155	B:5
=97	=97	=97	=97	=97	=97	=97	=97
1r	.	2.CM	newline	guitar	.	159.572	C:maj
.	.	4FM	.	guitar	.	160.832	F:maj
=98	=98	=98	=98	=98	=98	=98	=98
1r	.	2.CM	.	guitar	.	161.252	C:maj
.	.	4FM	.	guitar	.	162.512	F:maj
=99	=99	=99	=99	=99	=99	=99	=99
1r	.	2.CM	.	guitar	.	162.932	C:maj
.	.	4FM	.	guitar	.	164.191	F:maj
=100	=100	=100	=100	=100	=100	=100	=100
1r	.	2CM	.	guitar	.	164.611	C:maj
.	.	4D-M	.	guitar	.	165.451	D-:5
.	.	4Dm	.	guitar	.	165.871	D:5
=101	=101	=101	=101	=101	=101	=101	=101
1r	.	2.E-M	newline	guitar	.	166.291	E-:maj
.	.	4A-M	.	guitar	.	167.545	A-:maj
=102	=102	=102	=102	=102	=102	=102	=102
1r	.	2.E-M	.	guitar	.	167.963	E-:maj
.	.	4A-M	.	guitar	.	169.217	A-:maj
=103	=103	=103	=103	=103	=103	=103	=103
1r	.	2.E-M	.	guitar	.	169.635	E-:maj
.	.	4A-M	.	guitar	.	170.889	A-:maj
=104	=104	=104	=104	=104	=104	=104	=104
8r	.	2.E-M	.	guitar	.	171.307	E-:maj
4r	.	.	.	.	.	.	.
2r	.	.	.	.	.	.	.
.	.	4A-M	.	guitar	.	172.561	A-:maj
[8f	Ba-	.	.	.	.	.	.
=105	=105	=105	=105	=105	=105	=105	=105
*>Letter>E	*>Letter>E	*>Letter>E	*>Letter>E	*>Letter>E	*>Letter>E	*>Letter>E	*>Letter>E
*>Label>Chorus	*>Label>Chorus	*>Label>Chorus	*>Label>Chorus	*>Label>Chorus	*>Label>Chorus	*>Label>Chorus	*>Label>Chorus
8f]	_	2.FM	newline	voice	.	172.979	F:maj
8f	-by	.	.	.	.	.	.
8f	wants	.	.	.	.	.	.
8f	it	.	.	.	.	.	.
8c	fast	.	.	.	B	.	.
4r	.	.	.	.	.	.	.
.	.	4B-M	.	voice	.	174.209	B-:maj/5
[8f	ba-	.	.	.	.	.	.
=106	=106	=106	=106	=106	=106	=106	=106
8f]	_	2.FM	.	voice	.	174.62	F:maj
8f	-by	.	.	.	.	.	.
8f	wants	.	.	.	.	.	.
8f	a	.	.	.	.	.	.
8c	blast	.	.	.	B	.	.
8r	.	.	.	.	.	.	.
4r	.	4B-M	.	voice	.	175.85	B-:maj/5
=107	=107	=107	=107	=107	=107	=107	=107
8r	.	4FM	.	voice	.	176.26	F:maj
8e-	she	.	.	.	.	.	.
8e-	wants	2E-M	.	voice	.	176.671	E-:maj
8e-	a	.	.	.	.	.	.
8e-	rock-	.	.	.	.	.	.
8e-	-et	.	.	.	.	.	.
4B-	ride	4B-M	.	voice	.	177.491	B-:maj
=108	=108	=108	=108	=108	=108	=108	=108
8r	.	4B-M	.	voice	.	177.901	B-:maj
8e-	she	.	.	.	.	.	.
8e-	wants	2E-M	.	voice	.	178.311	E-:maj
8e-	a	.	.	.	.	.	.
8e-	rock-	.	.	.	.	.	.
8e-	-et	.	.	.	.	.	.
8B-	ride	4B-M	.	voice	.	179.132	B-:maj
[8f	Ba-	.	.	.	.	.	.
=109	=109	=109	=109	=109	=109	=109	=109
8f]	_	2.FM	newline	voice	.	179.542	F:maj
8f	-by	.	.	.	.	.	.
8f	wants	.	.	.	.	.	.
8f	it	.	.	.	.	.	.
8c	fast	.	.	.	B	.	.
4r	.	.	.	.	.	.	.
.	.	4B-M	.	voice	.	180.788	B-:maj/5
[8f	ba-	.	.	.	.	.	.
=110	=110	=110	=110	=110	=110	=110	=110
8f]	_	2.FM	.	voice	.	181.203	F:maj
8f	-by	.	.	.	.	.	.
8f	wants	.	.	.	.	.	.
8f	a	.	.	.	.	.	.
8c	blast	.	.	.	B	.	.
8r	.	.	.	.	.	.	.
4r	.	4B-M	.	voice	.	182.449	B-:maj/5
=111	=111	=111	=111	=111	=111	=111	=111
8r	.	4FM	.	voice	.	182.864	F:maj
8e-	she	.	.	.	.	.	.
8e-	wants	2E-M	.	voice	.	183.28	E-:maj
8e-	a	.	.	.	.	.	.
8e-	rock-	.	.	.	.	.	.
8e-	-et	.	.	.	.	.	.
4B-	ride	4B-M	.	voice	.	184.11	B-:maj
=112	=112	=112	=112	=112	=112	=112	=112
8r	.	4B-M	.	voice	.	184.526	B-:maj
8e-	she	.	.	.	.	.	.
8e-	wants	2E-M	.	voice	.	184.941	E-:maj
8e-	a	.	.	.	.	.	.
8e-	rock-	.	.	.	.	.	.
8e-	-et	.	.	.	.	.	.
8B-	ride	4B-M	.	voice	.	185.771	B-:maj
[8f	Ba-	.	.	.	.	.	.
=113	=113	=113	=113	=113	=113	=113	=113
*>Letter>E	*>Letter>E	*>Letter>E	*>Letter>E	*>Letter>E	*>Letter>E	*>Letter>E	*>Letter>E
*>Label>Chorus	*>Label>Chorus	*>Label>Chorus	*>Label>Chorus	*>Label>Chorus	*>Label>Chorus	*>Label>Chorus	*>Label>Chorus
8f]	_	2.FM	newline	voice	.	186.187	F:maj
8f	-by's	.	.	.	.	.	.
8f	on	.	.	.	.	.	.
8d	her	.	.	.	.	.	.
8c	knees	.	.	.	C	.	.
4r	.	.	.	.	.	.	.
.	.	4B-M	.	voice	.	187.425	B-:maj/5
[8f	ba	.	.	.	.	.	.
=114	=114	=114	=114	=114	=114	=114	=114
8f]	_	2.FM	.	voice	.	187.838	F:maj
8f	by	.	.	.	.	.	.
8f	wants	.	.	.	.	.	.
8d	to	.	.	.	.	.	.
8cc	please	.	.	.	C	.	.
8r	.	.	.	.	.	.	.
4r	.	4B-M	.	voice	.	189.076	B-:maj/5
=115	=115	=115	=115	=115	=115	=115	=115
8r	.	4FM	.	voice	.	189.489	F:maj
8e-	she	.	.	.	.	.	.
8e-	wants	2E-M	.	voice	.	189.902	E-:maj
8e-	a	.	.	.	.	.	.
8e-	rock-	.	.	.	.	.	.
8e-	-et	.	.	.	.	.	.
4B-	ride	4B-M	.	voice	.	190.728	B-:maj
=116	=116	=116	=116	=116	=116	=116	=116
8r	.	4B-M	.	voice	.	191.14	B-:maj
8e-	she	.	.	.	.	.	.
8e-	wants	2E-M	.	voice	.	191.553	E-:maj
8e-	a	.	.	.	.	.	.
8e-	rock-	.	.	.	.	.	.
8e-	-et	.	.	.	.	.	.
8B-	ride	4B-M	.	voice	.	192.379	B-:maj
[8f	Ba-	.	.	.	.	.	.
=117	=117	=117	=117	=117	=117	=117	=117
8f]	_	2.FM	newline	voice	.	192.792	F:maj
8f	-by's	.	.	.	.	.	.
8d	on	.	.	.	.	.	.
8c	her	.	.	.	.	.	.
8a	knees	.	.	.	C	.	.
4r	.	.	.	.	.	.	.
.	.	4B-M	.	voice	.	194.036	B-:maj/5
[8f	ba	.	.	.	.	.	.
=118	=118	=118	=118	=118	=118	=118	=118
8f]	_	2.FM	.	voice	.	194.45	F:maj
8f	by	.	.	.	.	.	.
8f	wants	.	.	.	.	.	.
8d	to	.	.	.	.	.	.
8a	please	.	.	.	C	.	.
8r	.	.	.	.	.	.	.
4r	.	4B-M	.	voice	.	195.694	B-:maj/5
=119	=119	=119	=119	=119	=119	=119	=119
8r	.	4FM	.	voice	.	196.109	F:maj
8e-	she	.	.	.	.	.	.
8e-	wants	2E-M	.	voice	.	196.523	E-:maj
8e-	a	.	.	.	.	.	.
8e-	rock-	.	.	.	.	.	.
8e-	-et	.	.	.	.	.	.
4B-	ride	4B-M	.	voice	.	197.353	B-:maj
=120	=120	=120	=120	=120	=120	=120	=120
8r	.	4B-M	.	voice	.	197.767	B-:maj
8d-	she	.	.	.	.	.	.
8e-	wants	2E-M	.	voice	.	198.182	E-:maj
8d-	a	.	.	.	.	.	.
8e-	rock-	.	.	.	.	.	.
8d-	-et	.	.	.	.	.	.
4b-	ride	4B-M	.	voice	.	199.011	B-:maj
=121	=121	=121	=121	=121	=121	=121	=121
*>Letter>B2	*>Letter>B2	*>Letter>B2	*>Letter>B2	*>Letter>B2	*>Letter>B2	*>Letter>B2	*>Letter>B2
*>Label>Outro	*>Label>Outro	*>Label>Outro	*>Label>Outro	*>Label>Outro	*>Label>Outro	*>Label>Outro	*>Label>Outro
1r	.	1E-m	newline	guitar	.	199.426	E-:min
=122	=122	=122	=122	=122	=122	=122	=122
1r	.	1E-m	.	guitar	.	201.12	E-:min
=123	=123	=123	=123	=123	=123	=123	=123
1r	.	1E-m	.	guitar	.	202.813	E-:min
=124	=124	=124	=124	=124	=124	=124	=124
1r	.	1E-m	.	guitar	.	204.506	E-:min
=125	=125	=125	=125	=125	=125	=125	=125
1r	.	1E-m	newline	guitar	.	206.2	E-:min
=126	=126	=126	=126	=126	=126	=126	=126
1r	.	1E-m	.	guitar	.	207.874	E-:min
=127	=127	=127	=127	=127	=127	=127	=127
1r	.	1E-m	.	guitar	.	209.548	E-:min
=128	=128	=128	=128	=128	=128	=128	=128
1r	.	1A-M	.	guitar	.	211.222	A-:5
=129	=129	=129	=129	=129	=129	=129	=129
1r	.	1A-M	newline	guitar	.	212.897	A-:5
=130	=130	=130	=130	=130	=130	=130	=130
r;	.	1r;	.	guitar	.	219.622	N.C.
=131	=131	=131	=131	=131	=131	=131	=131
r;	.	1r;	.	drums	.	225.507	N.C.
=132	=132	=132	=132	=132	=132	=132	=132
1r	.	1A-Mm;	newline	guitar	.	233.198	A-:7
=133	=133	=133	=133	=133	=133	=133	=133
1r	.	4A-M	.	guitar	.	236.599	A-:5
.	.	2.r	.	.	.	240.001	N.C.
r;	.	1r;	.	r	.	245.528	N.C.
r;	.	1r;	.	r	.	247.275	N.C.
*-	*-	*-	*-	*-	*-	*-	*-
!!!BillboardChartDate: 1978/04/08
!!!BillboardPeak: 39
!!!BillboardWeeksOnChart: 10
!!!COC: Kiss
!!!ENC: Nathaniel Condit-Schultz
!!!EST: Awating manual error checking and editing.
!!!OTL: Rocket Ride
!!!RDF**chordsym: original McGill chord annotation + (implied pitch class set, with bass pitch in first position)
!!!RDF**harmony: **recip + pitch class of root + harmonic quality
!!!RDF**leadinstrument: original McGill primary instrumentation annotation
!!!RDF**phrase: newline = linebreak in original McGill transcription
!!!RDF**timestamp: McGill audio timestamp in seconds
!!!RDT: 2017/01/12/
!!!SampleActualRank: 44
!!!SampleID#: 0610
!!!SampleTargetRank: 44
